X: 15
T: Splendid Isolation
C: Brendan McGlinchey
Z: jmeme
S: https://thesession.org/tunes/200#setting49833
R: reel
M: 4/4
L: 1/8
K: Gdor
|: GBAF GdcA|G2G/G/G FGA/B/c|d2cA GABc|dga/g/f gg/g/ga|
b2ag fg/f/de|f2ge fdcA|G2G/G/D FGA/B/c|1 d2cA FGA/G/F :|2 d2cA GABd||
|: g2ag fddf|gfdc ABc/B/B|AGG/G/G Gcdc|AGEG F3E|
F2AF GFAF|F/F/FAG FGAc|dga/g/d e/f/gag|1 fdcA GABd :|2 fdcA G2A/G/F||

%-------------------- TUNE SEPARATOR --------------------%

